src/topics/icons/kibana.svg

<svg height="342" preserveAspectRatio="xMidYMid" viewBox="0 0 256 342" width="256" xmlns="http://www.w3.org/2000/svg"><path d="m0 306.929431v34.012099h15.9856864l140.3339196-168.223841c-9.730971-6.324692-19.865575-12.005523-30.338792-17.006049z" fill="#009b90"/><path d="m156.32414 172.717689-140.4019443 168.291865h239.6492483c0-68.568391-38.909841-129.518072-99.247304-168.291865z" fill="#40beb0"/><path d="m0 0v307.445368l256-307.445368z" fill="#ef5098"/><path d="m.06818865 307.339209 126.17497535-151.494076c-39.5499298-18.473199-82.5920863-28.040687-126.243164-27.842075z" fill="#353535"/></svg>

<?xml version="1.0" encoding="UTF-8"?>
<svg width="256px" height="342px" viewBox="0 0 256 342" version="1.1" xmlns="http://www.w3.org/2000/svg" xmlns:xlink="http://www.w3.org/1999/xlink" preserveAspectRatio="xMidYMid">
    <g>
				<path d="M0,306.929431 L0,340.94153 L15.9856864,340.94153 L156.319606,172.717689 C146.588635,166.392997 136.454031,160.712166 125.980814,155.71164 L0,306.929431 Z" fill="#009B90"></path>
				<path d="M156.32414,172.717689 L15.9221957,341.009554 L255.571444,341.009554 C255.571444,272.441163 216.661603,211.491482 156.32414,172.717689 Z" fill="#40BEB0"></path>
				<polygon fill="#EF5098" points="-5.24025268e-14 0 -1.27897692e-13 307.445368 256 0"></polygon>
				<path d="M0.0681886504,307.339209 L126.243164,155.845133 C86.6932342,137.371934 43.6510777,127.804446 0,128.003058 L0.0681886504,307.339209 Z" fill="#353535"></path>
		</g>
</svg>
